X: 40928
T: Trip To Birmingham, The
R: reel
M: 4/4
K: Dmajor
DGGF GABd|e2 ed edBA|G2 GB dGBG|ABAG ED D2|
DGGF GABd|e2 ed efga|bg g2 ageg|1 dBAB G3 E:|2 dBAB G2 Bc||
dggf g2 ga|bgag edBA|G2 GB dGBG|ABAG ED D2|
[1 dggf g2 ga|bgag edBA|G2 GB dGBG|AGFA GABc:|
[2 dg g2 ag g2|b2 ag edBA|G3 B dGBG|AGFA G4||

